outputs/icons/hardware/keyboard_round.svg

<svg xmlns="http://www.w3.org/2000/svg" width="1200" height="1200" fill="none"><g clip-path="url(#a)"><path fill="#000" d="M1000 250H200c-55 0-99.5 45-99.5 100l-.5 500c0 55 45 100 100 100h800c55 0 100-45 100-100V350c0-55-45-100-100-100M550 400h100v100H550zm0 150h100v100H550zM400 400h100v100H400zm0 150h100v100H400zm-50 100H250V550h100zm0-150H250V400h100zm400 350H450c-27.5 0-50-22.5-50-50s22.5-50 50-50h300c27.5 0 50 22.5 50 50s-22.5 50-50 50m50-200H700V550h100zm0-150H700V400h100zm150 150H850V550h100zm0-150H850V400h100z"/></g><defs><clipPath id="a"><path fill="#fff" d="M0 0h1200v1200H0z"/></clipPath></defs></svg>

<svg width="1200" height="1200" viewBox="0 0 1200 1200" fill="none" xmlns="http://www.w3.org/2000/svg"><g clip-path="url(#clip0_238_1280)"><path d="M1000 250H200C145 250 100.5 295 100.5 350L100 850C100 905 145 950 200 950H1000C1055 950 1100 905 1100 850V350C1100 295 1055 250 1000 250ZM550 400H650V500H550V400ZM550 550H650V650H550V550ZM400 400H500V500H400V400ZM400 550H500V650H400V550ZM350 650H250V550H350V650ZM350 500H250V400H350V500ZM750 850H450C422.5 850 400 827.5 400 800C400 772.5 422.5 750 450 750H750C777.5 750 800 772.5 800 800C800 827.5 777.5 850 750 850ZM800 650H700V550H800V650ZM800 500H700V400H800V500ZM950 650H850V550H950V650ZM950 500H850V400H950V500Z" fill="black"/></g><defs><clipPath id="clip0_238_1280"><path width="24" fill="white" d="M0 0H1200V1200H0V0z"/></clipPath></defs></svg>
